X: 181
T: the Favourite
%R: hornpipe
M: C|
L: 1/8
Z: 2014 John Chambers <jc:trillian.mit.edu>
B: Chas & Sam Thompson "Twenty Four Country Dances for the Year 1772", London 1772, p.91
F: http://folkopedia.efdss.org/images/8/89/Thompson_24_1772.PDF
K: Bb
|:\
B>FD>F B>dc>B | c>AF>A c>ed>c | d>bf>d e>ge>c | d>fA>c B>AGF |
B>FD>F B>dc>B | c>AF>A c>ed>c | dbfd g2fe | dcBA B2B,2 :|
|:\
B>AB>c B>AB>c | Bcde f3F | G>FG>A G>FG>A | GABc d3D |
E>DE>F E>DE>F | EFGA B3[dB,] | [c3C3]g f>de>c | B2FD [B4B,4] :|
% - - - - - - - - - - - - - - - - - - - - - - - - -
%%begintext align
%% Foot it all 4 half Right & Left .|. the same back again :|.
%% cross over 2 Cu. lead up the middle foot it & cast off .|:
%% hands 4 at bottom Right & Left at top :|:
%%endtext
% - - - - - - - - - - - - - - - - - - - - - - - - -

%%sep 1 1 500
%%sep 1 1 500
